X: 021362
T: Boys of the Lough (4 part setting)
S: "Ceol Rince na hEireann" 1/159
Z: B.Black
L: 1/8
M: 4/4
R: reel
K: D
dB||AF (3FFF AFAB|defd efdB|AF (3FFF DF (3FFF|\
dF (3FFF EFGB|
AF (3FFF AFAB|defd efdB|AF (3FFF dF (3FFF|GFEG FD (3EFG||
AFGB ADFA|decd BcdB|AFDF AFDF|(3GFE FD EFGB|
(3ABA GB ABcA|defd BcdB|AF (3FFF DF (3FFF|GFEG FDFE||
Daag fgec|defd BcdB|AF (3FFF dF (3FFF|E3F E2 FE|
Daag fgec|defd BcdB|AF (3FFF dF (3FFF|GFEG FD D2||
Daag fgec|defd BcdB|AF (3FFF dF (3FFF|E3F E3D|
(3fgf gf egfe|defd cdBc|AF (3FFF DF (3FFF|GFEG FD D2||
